X:48
T: God Defend NZ
C: Thomas Bracken - lyrics, John Joseph Woods - Music score
Q:1/4=100 % Tempo 
M:4/4 % Time 
L:1/8 % Note length 
K:D % Key 
"D"D2 C2 D2 A,2 |F2 FE D4 |"G"B,2 G2 "D"A,2 F2 |"E"ED CB,"A" A,4| 
"D"D2 A,2"G" B,2 C2 |"A"D2 E2 "D"F4 |F2 D2 "G"B,2 E2 |"A"(D2 C2) "D"D4| 
A2 A2 D2 F2 |A2 AB A4 |"Em"E2 F2"G" GF ED |"A"CD CB, "A7"A,4 | 
"D"D2 A,2 "A"B,2 C2 |"G"D2 E2 "D"A4 |A2G2 "G"F2 G2 |"A"(F2 E2) "D"D4 ||
